icons/haze-line.svg

<svg xmlns="http://www.w3.org/2000/svg" width="24" height="24" fill="none"><g clip-path="url(#a)"><g><path fill="#121212" d="M6.083 13C5.93845 12.14 5.98311 11.2588 6.21388 10.4178C6.44464 9.57676 6.85597 8.79617 7.41921 8.13036C7.98245 7.46455 8.68406 6.92953 9.47518 6.56255C10.2663 6.19557 11.1279 6.00546 12 6.00546C12.8721 6.00546 13.7337 6.19557 14.5248 6.56255C15.3159 6.92953 16.0175 7.46455 16.5808 8.13036C17.144 8.79617 17.5554 9.57676 17.7861 10.4178C18.0169 11.2588 18.0616 12.14 17.917 13H15.874C16.0259 12.4091 16.0407 11.7913 15.9171 11.1938C15.7935 10.5963 15.5349 10.035 15.161 9.55285C14.7872 9.07069 14.3079 8.68045 13.7601 8.41198C13.2122 8.14352 12.6101 8.00395 12 8.00395C11.3899 8.00395 10.7878 8.14352 10.2399 8.41198C9.69205 8.68045 9.21284 9.07069 8.83897 9.55285C8.4651 10.035 8.20648 10.5963 8.08291 11.1938C7.95933 11.7913 7.97407 12.4091 8.126 13H6.083ZM2 15H12V17H2V15ZM14 15H22V17H14V15ZM16 19H20V21H16V19ZM4 19H14V21H4V19ZM11 1H13V4H11V1ZM3.515 4.929L4.929 3.515L7.05 5.636L5.636 7.05L3.515 4.93V4.929ZM19.07 3.515L20.484 4.929L18.363 7.05L16.949 5.636L19.07 3.515ZM23 11V13H20V11H23ZM4 11V13H1V11H4Z"/></g></g><defs><clipPath id="a"><rect width="24" height="24" fill="white"/></clipPath></defs></svg>

<svg width="24" height="24" fill="none" xmlns="http://www.w3.org/2000/svg"><g clip-path="url(#a)"><path d="M6.083 13a6 6 0 1 1 11.834 0h-2.043a4 4 0 1 0-7.748 0H6.083ZM2 15h10v2H2v-2Zm12 0h8v2h-8v-2Zm2 4h4v2h-4v-2ZM4 19h10v2H4v-2Zm7-18h2v3h-2V1ZM3.515 4.929l1.414-1.414L7.05 5.636 5.636 7.05 3.515 4.93v-.001ZM19.07 3.515l1.414 1.414-2.121 2.121-1.414-1.414 2.121-2.121ZM23 11v2h-3v-2h3ZM4 11v2H1v-2h3Z" /></g><defs><clipPath id="a"><path fill="#fff" d="M0 0h24v24H0z"/></clipPath></defs></svg>
